app/assets/images/icons/interest/snorkling-and-diving.svg

<?xml version="1.0" encoding="UTF-8" standalone="no"?>
<svg width="32px" height="232px" viewBox="0 0 32 232" version="1.1" xmlns="http://www.w3.org/2000/svg" xmlns:xlink="http://www.w3.org/1999/xlink" xmlns:sketch="http://www.bohemiancoding.com/sketch/ns">
    <!-- Generator: Sketch 3.0.4 (8054) - http://www.bohemiancoding.com/sketch -->
    <title>beaches 2</title>
    <desc>Created with Sketch.</desc>
    <defs></defs>
    <g id="Points-of-interest" stroke="none" stroke-width="1" fill="none" fill-rule="evenodd" sketch:type="MSPage">
        <g id="Diving-&amp;-Snorkeling" sketch:type="MSLayerGroup">
            <path d="M24.8309434,20.3632688 C25.4041509,19.8202688 25.7630189,19.0548938 25.7630189,18.2073938 C25.7630189,18.1890188 25.7626415,18.1713938 25.7615094,18.1533938 L25.5109434,13.8727688 C25.5011321,12.8726438 24.9920755,11.9891438 24.2207547,11.4562688 L23.8532075,6.08926878 C24.1286792,5.92839378 24.3143396,5.63101878 24.3143396,5.29014378 C24.3143396,4.90464378 24.0769811,4.57389378 23.7396226,4.43439378 L23.5637736,1.86376878 C23.5286792,1.35301878 23.0826415,0.968643776 22.569434,1.00201878 C22.0554717,1.03689378 21.6671698,1.47901878 21.7022642,1.98976878 L21.8750943,4.51276878 C21.6188679,4.67776878 21.4490566,4.96426878 21.4490566,5.29014378 C21.4490566,5.45476878 21.4928302,5.60889378 21.5679245,5.74276878 C21.6633962,5.91076878 21.809434,6.04614378 21.9856604,6.12864378 L22.3143396,10.9237688 L9.24943396,10.9237688 C7.60679245,10.9237688 6.26830189,12.2437688 6.25245283,13.8727688 L6.00188679,18.1533938 C6.00075472,18.1713938 6,18.1890188 6,18.2073938 C6,19.8498938 7.3445283,21.1856438 8.99735849,21.1856438 L11.8166038,21.1856438 C12.4158491,21.1856438 12.9015094,21.0247688 13.3030189,20.7633938 C13.8803774,21.3858938 14.8279245,22.1861438 15.8815094,22.1861438 C16.2996226,22.1861438 16.7003774,22.0601438 17.0683019,21.8692688 C17.6283019,21.5793938 18.1116981,21.1395188 18.46,20.7633938 C18.8615094,21.0247688 19.3471698,21.1856438 19.9464151,21.1856438 L22.7656604,21.1856438 C22.8501887,21.1856438 22.9339623,21.1815188 23.0162264,21.1743938 L23.3124528,25.4940188 C23.2966038,27.2107688 21.8860377,28.6023938 20.154717,28.6023938 C18.6807547,28.6023938 17.4396226,27.5932688 17.0939623,26.2331438 C17.5132075,26.1427688 17.8275472,25.7722688 17.8275472,25.3278938 C17.8275472,24.8163938 17.4098113,24.4008938 16.894717,24.4008938 L15.2358491,24.4008938 C14.7207547,24.4008938 14.3030189,24.8163938 14.3030189,25.3278938 C14.3030189,25.8266438 14.6992453,26.2316438 15.1950943,26.2530188 C15.5766038,28.6316438 17.6550943,30.4567688 20.154717,30.4567688 C22.9249057,30.4567688 25.1781132,28.2172688 25.1781132,25.4647688 C25.1781132,25.4441438 25.1773585,25.4231438 25.1758491,25.4017688 L24.8309434,20.3632688 L24.8309434,20.3632688 Z M22.7656604,19.3320188 L19.9464151,19.3320188 C19.2796226,19.3320188 18.9362264,18.7177688 18.3732075,17.2488938 C18.3701887,17.2410188 18.3671698,17.2331438 18.3641509,17.2252688 C17.9158491,16.0563938 17.3543396,14.6160188 15.9030189,14.6160188 L15.86,14.6160188 C14.3992453,14.6160188 13.8396226,16.0758938 13.3901887,17.2488938 C12.8267925,18.7177688 12.4837736,19.3320188 11.8166038,19.3320188 L8.99735849,19.3320188 C8.38113208,19.3320188 7.87811321,18.8396438 7.86603774,18.2302688 L8.11622642,13.9560188 C8.11698113,13.9380188 8.11735849,13.9203938 8.11735849,13.9023938 C8.11735849,13.2821438 8.62528302,12.7777688 9.24943396,12.7777688 L22.5135849,12.7777688 C22.8762264,12.7777688 23.1988679,12.9487688 23.4060377,13.2127688 C23.5554717,13.4036438 23.645283,13.6425188 23.645283,13.9023938 C23.645283,13.9203938 23.6460377,13.9380188 23.6467925,13.9560188 L23.8969811,18.2302688 C23.8939623,18.3982688 23.8520755,18.5568938 23.7818868,18.6993938 C23.6150943,19.0380188 23.2826415,19.2817688 22.8898113,19.3245188 C22.8490566,19.3290188 22.8079245,19.3320188 22.7656604,19.3320188 L22.7656604,19.3320188 Z M15.8815094,21.2591438 C15.1996226,21.2591438 14.4796226,20.6651438 13.9898113,20.1386438 C14.5298113,19.4816438 14.8581132,18.6262688 15.1335849,17.9085188 C15.3128302,17.4405188 15.6471698,16.5690188 15.86,16.4700188 L15.9,16.4677688 C16.1162264,16.5690188 16.4501887,17.4405188 16.6298113,17.9088938 C16.8762264,18.5516438 17.165283,19.3042688 17.610566,19.9263938 C17.6622642,19.9991438 17.7169811,20.0696438 17.7735849,20.1386438 C17.6788679,20.2406438 17.5750943,20.3448938 17.465283,20.4468938 C17.0064151,20.8728938 16.4313208,21.2591438 15.8815094,21.2591438 L15.8815094,21.2591438 Z" id="Imported-Layers" fill="#373D43" sketch:type="MSShapeGroup"></path>
            <path d="M24.8309434,60.3632688 C25.4041509,59.8202688 25.7630189,59.0548938 25.7630189,58.2073938 C25.7630189,58.1890188 25.7626415,58.1713938 25.7615094,58.1533938 L25.5109434,53.8727688 C25.5011321,52.8726438 24.9920755,51.9891438 24.2207547,51.4562688 L23.8532075,46.0892688 C24.1286792,45.9283938 24.3143396,45.6310188 24.3143396,45.2901438 C24.3143396,44.9046438 24.0769811,44.5738938 23.7396226,44.4343938 L23.5637736,41.8637688 C23.5286792,41.3530188 23.0826415,40.9686438 22.569434,41.0020188 C22.0554717,41.0368938 21.6671698,41.4790188 21.7022642,41.9897688 L21.8750943,44.5127688 C21.6188679,44.6777688 21.4490566,44.9642688 21.4490566,45.2901438 C21.4490566,45.4547688 21.4928302,45.6088938 21.5679245,45.7427688 C21.6633962,45.9107688 21.809434,46.0461438 21.9856604,46.1286438 L22.3143396,50.9237688 L9.24943396,50.9237688 C7.60679245,50.9237688 6.26830189,52.2437688 6.25245283,53.8727688 L6.00188679,58.1533938 C6.00075472,58.1713938 6,58.1890188 6,58.2073938 C6,59.8498938 7.3445283,61.1856438 8.99735849,61.1856438 L11.8166038,61.1856438 C12.4158491,61.1856438 12.9015094,61.0247688 13.3030189,60.7633938 C13.8803774,61.3858938 14.8279245,62.1861438 15.8815094,62.1861438 C16.2996226,62.1861438 16.7003774,62.0601438 17.0683019,61.8692688 C17.6283019,61.5793938 18.1116981,61.1395188 18.46,60.7633938 C18.8615094,61.0247688 19.3471698,61.1856438 19.9464151,61.1856438 L22.7656604,61.1856438 C22.8501887,61.1856438 22.9339623,61.1815188 23.0162264,61.1743938 L23.3124528,65.4940188 C23.2966038,67.2107688 21.8860377,68.6023938 20.154717,68.6023938 C18.6807547,68.6023938 17.4396226,67.5932688 17.0939623,66.2331438 C17.5132075,66.1427688 17.8275472,65.7722688 17.8275472,65.3278938 C17.8275472,64.8163938 17.4098113,64.4008938 16.894717,64.4008938 L15.2358491,64.4008938 C14.7207547,64.4008938 14.3030189,64.8163938 14.3030189,65.3278938 C14.3030189,65.8266438 14.6992453,66.2316438 15.1950943,66.2530188 C15.5766038,68.6316438 17.6550943,70.4567688 20.154717,70.4567688 C22.9249057,70.4567688 25.1781132,68.2172688 25.1781132,65.4647688 C25.1781132,65.4441438 25.1773585,65.4231438 25.1758491,65.4017688 L24.8309434,60.3632688 L24.8309434,60.3632688 Z M22.7656604,59.3320188 L19.9464151,59.3320188 C19.2796226,59.3320188 18.9362264,58.7177688 18.3732075,57.2488938 C18.3701887,57.2410188 18.3671698,57.2331438 18.3641509,57.2252688 C17.9158491,56.0563938 17.3543396,54.6160188 15.9030189,54.6160188 L15.86,54.6160188 C14.3992453,54.6160188 13.8396226,56.0758938 13.3901887,57.2488938 C12.8267925,58.7177688 12.4837736,59.3320188 11.8166038,59.3320188 L8.99735849,59.3320188 C8.38113208,59.3320188 7.87811321,58.8396438 7.86603774,58.2302688 L8.11622642,53.9560188 C8.11698113,53.9380188 8.11735849,53.9203938 8.11735849,53.9023938 C8.11735849,53.2821438 8.62528302,52.7777688 9.24943396,52.7777688 L22.5135849,52.7777688 C22.8762264,52.7777688 23.1988679,52.9487688 23.4060377,53.2127688 C23.5554717,53.4036438 23.645283,53.6425188 23.645283,53.9023938 C23.645283,53.9203938 23.6460377,53.9380188 23.6467925,53.9560188 L23.8969811,58.2302688 C23.8939623,58.3982688 23.8520755,58.5568938 23.7818868,58.6993938 C23.6150943,59.0380188 23.2826415,59.2817688 22.8898113,59.3245188 C22.8490566,59.3290188 22.8079245,59.3320188 22.7656604,59.3320188 L22.7656604,59.3320188 Z M15.8815094,61.2591438 C15.1996226,61.2591438 14.4796226,60.6651438 13.9898113,60.1386438 C14.5298113,59.4816438 14.8581132,58.6262688 15.1335849,57.9085188 C15.3128302,57.4405188 15.6471698,56.5690188 15.86,56.4700188 L15.9,56.4677688 C16.1162264,56.5690188 16.4501887,57.4405188 16.6298113,57.9088938 C16.8762264,58.5516438 17.165283,59.3042688 17.610566,59.9263938 C17.6622642,59.9991438 17.7169811,60.0696438 17.7735849,60.1386438 C17.6788679,60.2406438 17.5750943,60.3448938 17.465283,60.4468938 C17.0064151,60.8728938 16.4313208,61.2591438 15.8815094,61.2591438 L15.8815094,61.2591438 Z" id="Imported-Layers-2" fill="#67747C" sketch:type="MSShapeGroup"></path>
            <path d="M24.8309434,100.363269 C25.4041509,99.8202688 25.7630189,99.0548938 25.7630189,98.2073938 C25.7630189,98.1890188 25.7626415,98.1713938 25.7615094,98.1533938 L25.5109434,93.8727688 C25.5011321,92.8726438 24.9920755,91.9891438 24.2207547,91.4562688 L23.8532075,86.0892688 C24.1286792,85.9283938 24.3143396,85.6310188 24.3143396,85.2901438 C24.3143396,84.9046438 24.0769811,84.5738938 23.7396226,84.4343938 L23.5637736,81.8637688 C23.5286792,81.3530188 23.0826415,80.9686438 22.569434,81.0020188 C22.0554717,81.0368938 21.6671698,81.4790188 21.7022642,81.9897688 L21.8750943,84.5127688 C21.6188679,84.6777688 21.4490566,84.9642688 21.4490566,85.2901438 C21.4490566,85.4547688 21.4928302,85.6088938 21.5679245,85.7427688 C21.6633962,85.9107688 21.809434,86.0461438 21.9856604,86.1286438 L22.3143396,90.9237688 L9.24943396,90.9237688 C7.60679245,90.9237688 6.26830189,92.2437688 6.25245283,93.8727688 L6.00188679,98.1533938 C6.00075472,98.1713938 6,98.1890188 6,98.2073938 C6,99.8498938 7.3445283,101.185644 8.99735849,101.185644 L11.8166038,101.185644 C12.4158491,101.185644 12.9015094,101.024769 13.3030189,100.763394 C13.8803774,101.385894 14.8279245,102.186144 15.8815094,102.186144 C16.2996226,102.186144 16.7003774,102.060144 17.0683019,101.869269 C17.6283019,101.579394 18.1116981,101.139519 18.46,100.763394 C18.8615094,101.024769 19.3471698,101.185644 19.9464151,101.185644 L22.7656604,101.185644 C22.8501887,101.185644 22.9339623,101.181519 23.0162264,101.174394 L23.3124528,105.494019 C23.2966038,107.210769 21.8860377,108.602394 20.154717,108.602394 C18.6807547,108.602394 17.4396226,107.593269 17.0939623,106.233144 C17.5132075,106.142769 17.8275472,105.772269 17.8275472,105.327894 C17.8275472,104.816394 17.4098113,104.400894 16.894717,104.400894 L15.2358491,104.400894 C14.7207547,104.400894 14.3030189,104.816394 14.3030189,105.327894 C14.3030189,105.826644 14.6992453,106.231644 15.1950943,106.253019 C15.5766038,108.631644 17.6550943,110.456769 20.154717,110.456769 C22.9249057,110.456769 25.1781132,108.217269 25.1781132,105.464769 C25.1781132,105.444144 25.1773585,105.423144 25.1758491,105.401769 L24.8309434,100.363269 L24.8309434,100.363269 Z M22.7656604,99.3320188 L19.9464151,99.3320188 C19.2796226,99.3320188 18.9362264,98.7177688 18.3732075,97.2488938 C18.3701887,97.2410188 18.3671698,97.2331438 18.3641509,97.2252688 C17.9158491,96.0563938 17.3543396,94.6160188 15.9030189,94.6160188 L15.86,94.6160188 C14.3992453,94.6160188 13.8396226,96.0758938 13.3901887,97.2488938 C12.8267925,98.7177688 12.4837736,99.3320188 11.8166038,99.3320188 L8.99735849,99.3320188 C8.38113208,99.3320188 7.87811321,98.8396438 7.86603774,98.2302688 L8.11622642,93.9560188 C8.11698113,93.9380188 8.11735849,93.9203938 8.11735849,93.9023938 C8.11735849,93.2821438 8.62528302,92.7777688 9.24943396,92.7777688 L22.5135849,92.7777688 C22.8762264,92.7777688 23.1988679,92.9487688 23.4060377,93.2127688 C23.5554717,93.4036438 23.645283,93.6425188 23.645283,93.9023938 C23.645283,93.9203938 23.6460377,93.9380188 23.6467925,93.9560188 L23.8969811,98.2302688 C23.8939623,98.3982688 23.8520755,98.5568938 23.7818868,98.6993938 C23.6150943,99.0380188 23.2826415,99.2817688 22.8898113,99.3245188 C22.8490566,99.3290188 22.8079245,99.3320188 22.7656604,99.3320188 L22.7656604,99.3320188 Z M15.8815094,101.259144 C15.1996226,101.259144 14.4796226,100.665144 13.9898113,100.138644 C14.5298113,99.4816438 14.8581132,98.6262688 15.1335849,97.9085188 C15.3128302,97.4405188 15.6471698,96.5690188 15.86,96.4700188 L15.9,96.4677688 C16.1162264,96.5690188 16.4501887,97.4405188 16.6298113,97.9088938 C16.8762264,98.5516438 17.165283,99.3042688 17.610566,99.9263938 C17.6622642,99.9991438 17.7169811,100.069644 17.7735849,100.138644 C17.6788679,100.240644 17.5750943,100.344894 17.465283,100.446894 C17.0064151,100.872894 16.4313208,101.259144 15.8815094,101.259144 L15.8815094,101.259144 Z" id="Imported-Layers-3" fill="#FFFFFF" sketch:type="MSShapeGroup"></path>
            <path d="M24.8309434,140.363269 C25.4041509,139.820269 25.7630189,139.054894 25.7630189,138.207394 C25.7630189,138.189019 25.7626415,138.171394 25.7615094,138.153394 L25.5109434,133.872769 C25.5011321,132.872644 24.9920755,131.989144 24.2207547,131.456269 L23.8532075,126.089269 C24.1286792,125.928394 24.3143396,125.631019 24.3143396,125.290144 C24.3143396,124.904644 24.0769811,124.573894 23.7396226,124.434394 L23.5637736,121.863769 C23.5286792,121.353019 23.0826415,120.968644 22.569434,121.002019 C22.0554717,121.036894 21.6671698,121.479019 21.7022642,121.989769 L21.8750943,124.512769 C21.6188679,124.677769 21.4490566,124.964269 21.4490566,125.290144 C21.4490566,125.454769 21.4928302,125.608894 21.5679245,125.742769 C21.6633962,125.910769 21.809434,126.046144 21.9856604,126.128644 L22.3143396,130.923769 L9.24943396,130.923769 C7.60679245,130.923769 6.26830189,132.243769 6.25245283,133.872769 L6.00188679,138.153394 C6.00075472,138.171394 6,138.189019 6,138.207394 C6,139.849894 7.3445283,141.185644 8.99735849,141.185644 L11.8166038,141.185644 C12.4158491,141.185644 12.9015094,141.024769 13.3030189,140.763394 C13.8803774,141.385894 14.8279245,142.186144 15.8815094,142.186144 C16.2996226,142.186144 16.7003774,142.060144 17.0683019,141.869269 C17.6283019,141.579394 18.1116981,141.139519 18.46,140.763394 C18.8615094,141.024769 19.3471698,141.185644 19.9464151,141.185644 L22.7656604,141.185644 C22.8501887,141.185644 22.9339623,141.181519 23.0162264,141.174394 L23.3124528,145.494019 C23.2966038,147.210769 21.8860377,148.602394 20.154717,148.602394 C18.6807547,148.602394 17.4396226,147.593269 17.0939623,146.233144 C17.5132075,146.142769 17.8275472,145.772269 17.8275472,145.327894 C17.8275472,144.816394 17.4098113,144.400894 16.894717,144.400894 L15.2358491,144.400894 C14.7207547,144.400894 14.3030189,144.816394 14.3030189,145.327894 C14.3030189,145.826644 14.6992453,146.231644 15.1950943,146.253019 C15.5766038,148.631644 17.6550943,150.456769 20.154717,150.456769 C22.9249057,150.456769 25.1781132,148.217269 25.1781132,145.464769 C25.1781132,145.444144 25.1773585,145.423144 25.1758491,145.401769 L24.8309434,140.363269 L24.8309434,140.363269 Z M22.7656604,139.332019 L19.9464151,139.332019 C19.2796226,139.332019 18.9362264,138.717769 18.3732075,137.248894 C18.3701887,137.241019 18.3671698,137.233144 18.3641509,137.225269 C17.9158491,136.056394 17.3543396,134.616019 15.9030189,134.616019 L15.86,134.616019 C14.3992453,134.616019 13.8396226,136.075894 13.3901887,137.248894 C12.8267925,138.717769 12.4837736,139.332019 11.8166038,139.332019 L8.99735849,139.332019 C8.38113208,139.332019 7.87811321,138.839644 7.86603774,138.230269 L8.11622642,133.956019 C8.11698113,133.938019 8.11735849,133.920394 8.11735849,133.902394 C8.11735849,133.282144 8.62528302,132.777769 9.24943396,132.777769 L22.5135849,132.777769 C22.8762264,132.777769 23.1988679,132.948769 23.4060377,133.212769 C23.5554717,133.403644 23.645283,133.642519 23.645283,133.902394 C23.645283,133.920394 23.6460377,133.938019 23.6467925,133.956019 L23.8969811,138.230269 C23.8939623,138.398269 23.8520755,138.556894 23.7818868,138.699394 C23.6150943,139.038019 23.2826415,139.281769 22.8898113,139.324519 C22.8490566,139.329019 22.8079245,139.332019 22.7656604,139.332019 L22.7656604,139.332019 Z M15.8815094,141.259144 C15.1996226,141.259144 14.4796226,140.665144 13.9898113,140.138644 C14.5298113,139.481644 14.8581132,138.626269 15.1335849,137.908519 C15.3128302,137.440519 15.6471698,136.569019 15.86,136.470019 L15.9,136.467769 C16.1162264,136.569019 16.4501887,137.440519 16.6298113,137.908894 C16.8762264,138.551644 17.165283,139.304269 17.610566,139.926394 C17.6622642,139.999144 17.7169811,140.069644 17.7735849,140.138644 C17.6788679,140.240644 17.5750943,140.344894 17.465283,140.446894 C17.0064151,140.872894 16.4313208,141.259144 15.8815094,141.259144 L15.8815094,141.259144 Z" id="Imported-Layers-4" fill="#206FAC" sketch:type="MSShapeGroup"></path>
        </g>
    </g>
</svg>

<svg width="32" height="232" viewBox="0 0 32 232" xmlns="http://www.w3.org/2000/svg" xmlns:sketch="http://www.bohemiancoding.com/sketch/ns"><title>beaches 2</title><desc>Created with Sketch.</desc><g sketch:type="MSLayerGroup" fill="none"><path d="M24.831 20.363c.573-.543.932-1.308.932-2.156l-.002-.054-.251-4.281c-.01-1-.519-1.884-1.29-2.416l-.368-5.367c.275-.161.461-.458.461-.799 0-.386-.237-.716-.575-.856l-.176-2.571c-.035-.511-.481-.895-.994-.862-.514.035-.902.477-.867.988l.173 2.523c-.256.165-.426.452-.426.777 0 .165.044.319.119.453.095.168.242.303.418.386l.329 4.795h-13.065c-1.643 0-2.981 1.32-2.997 2.949l-.251 4.281-.002.054c0 1.643 1.345 2.978 2.997 2.978h2.819c.599 0 1.085-.161 1.486-.422.577.623 1.525 1.423 2.578 1.423.418 0 .819-.126 1.187-.317.56-.29 1.043-.73 1.392-1.106.402.261.887.422 1.486.422h2.819l.251-.011.296 4.32c-.016 1.717-1.426 3.108-3.158 3.108-1.474 0-2.715-1.009-3.061-2.369.419-.09.734-.461.734-.905 0-.511-.418-.927-.933-.927h-1.659c-.515 0-.933.416-.933.927 0 .499.396.904.892.925.382 2.379 2.46 4.204 4.96 4.204 2.77 0 5.023-2.239 5.023-4.992l-.002-.063-.345-5.038zm-2.065-1.031h-2.819c-.667 0-1.01-.614-1.573-2.083l-.009-.024c-.448-1.169-1.01-2.609-2.461-2.609h-.043c-1.461 0-2.02 1.46-2.47 2.633-.563 1.469-.906 2.083-1.574 2.083h-2.819c-.616 0-1.119-.492-1.131-1.102l.25-4.274.001-.054c0-.62.508-1.125 1.132-1.125h13.264c.363 0 .685.171.892.435.149.191.239.43.239.69l.002.054.25 4.274c-.003.168-.045.327-.115.469-.167.339-.499.582-.892.625l-.124.008zm-6.884 1.927c-.682 0-1.402-.594-1.892-1.12.54-.657.868-1.512 1.144-2.23.179-.468.514-1.34.726-1.439l.04-.002c.216.101.55.973.73 1.441.246.643.535 1.395.981 2.017l.163.212-.308.308c-.459.426-1.034.812-1.584.812z" fill="#373D43" sketch:type="MSShapeGroup"/><path d="M24.831 60.363c.573-.543.932-1.308.932-2.156l-.002-.054-.251-4.281c-.01-1-.519-1.884-1.29-2.417l-.368-5.367c.275-.161.461-.458.461-.799 0-.386-.237-.716-.575-.856l-.176-2.571c-.035-.511-.481-.895-.994-.862-.514.035-.902.477-.867.988l.173 2.523c-.256.165-.426.451-.426.777 0 .165.044.319.119.453.095.168.242.303.418.386l.329 4.795h-13.065c-1.643 0-2.981 1.32-2.997 2.949l-.251 4.281-.002.054c0 1.642 1.345 2.978 2.997 2.978h2.819c.599 0 1.085-.161 1.486-.422.577.622 1.525 1.423 2.578 1.423.418 0 .819-.126 1.187-.317.56-.29 1.043-.73 1.392-1.106.402.261.887.422 1.486.422h2.819l.251-.011.296 4.32c-.016 1.717-1.426 3.108-3.158 3.108-1.474 0-2.715-1.009-3.061-2.369.419-.09.734-.461.734-.905 0-.511-.418-.927-.933-.927h-1.659c-.515 0-.933.415-.933.927 0 .499.396.904.892.925.382 2.379 2.46 4.204 4.96 4.204 2.77 0 5.023-2.24 5.023-4.992l-.002-.063-.345-5.038zm-2.065-1.031h-2.819c-.667 0-1.01-.614-1.573-2.083l-.009-.024c-.448-1.169-1.01-2.609-2.461-2.609h-.043c-1.461 0-2.02 1.46-2.47 2.633-.563 1.469-.906 2.083-1.574 2.083h-2.819c-.616 0-1.119-.492-1.131-1.102l.25-4.274.001-.054c0-.62.508-1.125 1.132-1.125h13.264c.363 0 .685.171.892.435.149.191.239.43.239.69l.002.054.25 4.274c-.003.168-.045.327-.115.469-.167.339-.499.582-.892.625l-.124.008zm-6.884 1.927c-.682 0-1.402-.594-1.892-1.12.54-.657.868-1.512 1.144-2.23.179-.468.514-1.34.726-1.439l.04-.002c.216.101.55.973.73 1.441.246.643.535 1.395.981 2.017l.163.212-.308.308c-.459.426-1.034.812-1.584.812z" fill="#67747C" sketch:type="MSShapeGroup"/><path d="M24.831 100.363c.573-.543.932-1.308.932-2.156l-.002-.054-.251-4.281c-.01-1-.519-1.884-1.29-2.416l-.368-5.367c.275-.161.461-.458.461-.799 0-.385-.237-.716-.575-.856l-.176-2.571c-.035-.511-.481-.895-.994-.862-.514.035-.902.477-.867.988l.173 2.523c-.256.165-.426.451-.426.777 0 .165.044.319.119.453.095.168.242.303.418.386l.329 4.795h-13.065c-1.643 0-2.981 1.32-2.997 2.949l-.251 4.281-.002.054c0 1.642 1.345 2.978 2.997 2.978h2.819c.599 0 1.085-.161 1.486-.422.577.622 1.525 1.423 2.578 1.423.418 0 .819-.126 1.187-.317.56-.29 1.043-.73 1.392-1.106.402.261.887.422 1.486.422h2.819l.251-.011.296 4.32c-.016 1.717-1.426 3.108-3.158 3.108-1.474 0-2.715-1.009-3.061-2.369.419-.09.734-.461.734-.905 0-.511-.418-.927-.933-.927h-1.659c-.515 0-.933.416-.933.927 0 .499.396.904.892.925.382 2.379 2.46 4.204 4.96 4.204 2.77 0 5.023-2.239 5.023-4.992l-.002-.063-.345-5.038zm-2.065-1.031h-2.819c-.667 0-1.01-.614-1.573-2.083l-.009-.024c-.448-1.169-1.01-2.609-2.461-2.609h-.043c-1.461 0-2.02 1.46-2.47 2.633-.563 1.469-.906 2.083-1.574 2.083h-2.819c-.616 0-1.119-.492-1.131-1.102l.25-4.274.001-.054c0-.62.508-1.125 1.132-1.125h13.264c.363 0 .685.171.892.435.149.191.239.43.239.69l.002.054.25 4.274c-.003.168-.045.327-.115.469-.167.339-.499.582-.892.625l-.124.007zm-6.884 1.927c-.682 0-1.402-.594-1.892-1.121.54-.657.868-1.512 1.144-2.23.179-.468.514-1.34.726-1.438l.04-.002c.216.101.55.973.73 1.441.246.643.535 1.395.981 2.017l.163.212-.308.308c-.459.426-1.034.812-1.584.812z" fill="#fff" sketch:type="MSShapeGroup"/><path d="M24.831 140.363c.573-.543.932-1.308.932-2.156l-.002-.054-.251-4.281c-.01-1-.519-1.884-1.29-2.417l-.368-5.367c.275-.161.461-.458.461-.799 0-.385-.237-.716-.575-.856l-.176-2.571c-.035-.511-.481-.895-.994-.862-.514.035-.902.477-.867.988l.173 2.523c-.256.165-.426.451-.426.777 0 .165.044.319.119.453.095.168.242.303.418.386l.329 4.795h-13.065c-1.643 0-2.981 1.32-2.997 2.949l-.251 4.281-.002.054c0 1.643 1.345 2.978 2.997 2.978h2.819c.599 0 1.085-.161 1.486-.422.577.623 1.525 1.423 2.578 1.423.418 0 .819-.126 1.187-.317.56-.29 1.043-.73 1.392-1.106.402.261.887.422 1.486.422h2.819l.251-.011.296 4.32c-.016 1.717-1.426 3.108-3.158 3.108-1.474 0-2.715-1.009-3.061-2.369.419-.09.734-.461.734-.905 0-.511-.418-.927-.933-.927h-1.659c-.515 0-.933.416-.933.927 0 .499.396.904.892.925.382 2.379 2.46 4.204 4.96 4.204 2.77 0 5.023-2.24 5.023-4.992l-.002-.063-.345-5.038zm-2.065-1.031h-2.819c-.667 0-1.01-.614-1.573-2.083l-.009-.024c-.448-1.169-1.01-2.609-2.461-2.609h-.043c-1.461 0-2.02 1.46-2.47 2.633-.563 1.469-.906 2.083-1.574 2.083h-2.819c-.616 0-1.119-.492-1.131-1.102l.25-4.274.001-.054c0-.62.508-1.125 1.132-1.125h13.264c.363 0 .685.171.892.435.149.191.239.43.239.69l.002.054.25 4.274c-.003.168-.045.327-.115.469-.167.339-.499.582-.892.625l-.124.007zm-6.884 1.927c-.682 0-1.402-.594-1.892-1.12.54-.657.868-1.512 1.144-2.23.179-.468.514-1.34.726-1.439l.04-.002c.216.101.55.973.73 1.441.246.643.535 1.395.981 2.017l.163.212-.308.308c-.459.426-1.034.812-1.584.812z" fill="#206FAC" sketch:type="MSShapeGroup"/></g></svg>
